X: 73
T: Walking in My Sleep
N: From Uncle Earl, â€œShe Waits for Nightâ€, Rounder-11661-0565-2
N: Transcribed by Bruce Thomson
L: 1/8
M: C
K: G
|:â€Gâ€g2g2 ed2|[g3d3][gd][g4d4]|g2g2edB2|â€Dâ€A3AA4|
a2a2a2g2|[f3A3]f[f4A4]|f2f2edBF|â€Gâ€G3GG4:|
|:â€Gâ€D4DEG2|B3BB4|B3AABc|â€Dâ€d3dd4|
A2A2A2B2|â€Câ€c3cc4|BcB2AGEF|â€Gâ€G3GG4:|

